img/sponsors/ace-hotel-portland.svg

<?xml version="1.0" encoding="UTF-8"?>
<svg width="272px" height="75px" viewBox="0 0 272 75" version="1.1" xmlns="http://www.w3.org/2000/svg" xmlns:xlink="http://www.w3.org/1999/xlink">
    <!-- Generator: Sketch 41 (35326) - http://www.bohemiancoding.com/sketch -->
    <title>PDX logo</title>
    <desc>Created with Sketch.</desc>
    <defs>
        <polygon id="path-1" points="0 0.5336 0 34.3286 33.2187 34.3286 33.2187 0.5336 4.06575815e-20 0.5336"></polygon>
        <polygon id="path-3" points="28.773 34.3281 28.773 0.5331 0.4033 0.5331 0.4033 34.3281 28.773 34.3281"></polygon>
        <polygon id="path-5" points="0.5601 36 31.4751 36 31.4751 0.1894 0.5601 0.1894"></polygon>
    </defs>
    <g id="Page-1" stroke="none" stroke-width="1" fill="none" fill-rule="evenodd">
        <g id="PDX-logo">
            <g id="Group-3" transform="translate(0.000000, 0.810500)">
                <mask id="mask-2" fill="white">
                    <use xlink:href="#path-1"></use>
                </mask>
                <g id="Clip-2"></g>
                <path d="M14.5937,10.5186 L13.2007,17.4316 L15.8897,17.4316 L14.5937,10.5186 Z M14.7847,34.3286 L14.7847,25.1606 L15.6497,25.1606 C16.8017,25.1606 17.4737,24.4886 17.2817,23.5766 L16.8497,21.6076 L12.1937,21.6076 C12.1937,21.6076 11.8097,22.7106 11.8577,23.4316 C11.9057,24.8246 13.0577,25.2066 13.7297,25.1606 L13.7297,34.3286 L-0.0003,34.3286 L-0.0003,25.1116 C1.7287,25.1116 2.9287,23.7186 3.5047,21.5116 L9.0727,0.5336 L24.7707,0.5336 L30.2427,21.2226 C30.7227,23.0466 31.2027,25.1116 33.2187,25.1606 L33.2187,34.3286 L14.7847,34.3286 Z" id="Fill-1" fill="#0A0B09" mask="url(#mask-2)"></path>
            </g>
            <path d="M48.9121,35.7148 C38.4951,35.7148 33.9341,27.7948 33.9341,19.0098 C33.9341,8.4008 38.8791,0.0488 47.2801,0.0488 C52.0801,0.0488 53.5681,2.2558 54.2881,2.5918 L54.6241,1.0078 L63.0251,1.0078 L63.0251,16.8498 L51.6001,16.8498 L51.6001,15.1208 C51.6001,13.1528 51.3121,10.2738 49.6801,10.2738 C47.7601,10.2738 47.2801,14.3048 47.2801,18.5778 C47.2801,21.6508 47.2801,26.0178 49.5841,26.0668 C50.6881,26.0668 51.6001,24.4828 51.6001,21.7458 L51.6001,18.9138 L63.2171,18.9138 L63.2171,20.2578 C63.2171,28.6108 59.5691,35.7148 48.9121,35.7148" id="Fill-4" fill="#0A0B09"></path>
            <path d="M65.375,35.1386 L65.375,25.9706 C67.631,25.9706 68.159,25.2496 68.159,23.9546 L68.159,12.7206 C68.159,10.4166 66.095,10.6096 65.375,10.6096 L65.375,1.3436 L93.842,1.3436 L93.842,16.1776 L85.585,16.1776 L85.393,13.0566 C85.297,11.7126 84.625,10.6096 82.129,10.6096 L80.881,10.6096 L80.881,15.4096 C81.553,15.4096 81.937,14.6416 81.937,13.6326 L81.937,12.3846 L84.433,12.3846 L84.433,23.5216 L81.889,23.5216 L81.889,21.7946 C81.889,20.6896 81.408,20.4496 80.977,20.4026 L80.977,25.9706 L82.705,25.9706 C84.673,25.9706 85.777,23.4746 85.777,21.4566 L85.777,19.1056 L93.937,19.1056 L93.937,35.1386 L65.375,35.1386 Z" id="Fill-6" fill="#0A0B09"></path>
            <path d="M141.7441,12.9609 L141.7441,24.0019 C141.7441,24.9629 142.6081,25.9709 143.8561,25.9709 L143.8561,35.1389 L126.6711,35.1389 L126.6711,25.9709 C128.3991,25.6819 128.7831,24.7699 128.7831,23.7619 L128.7831,20.5939 L124.2701,20.5939 L124.2701,24.2419 C124.2701,24.9629 125.2791,25.9709 126.0951,25.9709 L126.0951,35.1389 L109.1011,35.1389 L109.1011,25.9709 C110.6851,25.9709 111.4061,24.9139 111.4061,23.7619 L111.4061,12.1449 C111.4061,11.2319 110.6381,10.6089 109.1971,10.6089 L109.1971,1.3439 L126.2391,1.3439 L126.2391,10.6089 C124.7991,10.6089 124.2701,11.6649 124.2701,12.5289 L124.2701,15.0729 L128.7831,15.0729 L128.7831,12.2409 C128.7831,11.5689 128.2551,10.6089 126.8151,10.6089 L126.8151,1.3439 L143.9531,1.3439 L143.9531,10.5609 C143.2321,10.7049 141.7441,10.4169 141.7441,12.9609" id="Fill-8" fill="#0A0B09"></path>
            <path d="M161.7109,10.4169 C159.2149,10.4169 159.1179,14.0649 159.1179,18.3859 C159.1179,21.3609 158.7819,25.6349 161.3749,25.6349 C164.0149,25.6349 164.1109,21.4099 164.1109,17.7619 C164.1109,13.1529 163.9189,10.4169 161.7109,10.4169 M161.2779,35.8109 C152.4939,35.8109 146.1089,29.4259 146.1089,19.1049 C146.1089,7.9689 151.9659,-0.0001 161.6629,-0.0001 C170.6399,-0.0001 177.0239,6.3359 177.0239,17.0899 C177.0239,26.3069 172.5599,35.8109 161.2779,35.8109" id="Fill-10" fill="#0A0B09"></path>
            <path d="M202.9424,16.8974 L202.9424,12.3844 C202.9424,10.6574 201.5034,10.7524 201.5034,10.7524 L201.5034,23.7614 C201.5034,24.5294 202.3674,25.9704 204.4784,25.9704 L204.4784,35.1384 L185.0854,35.1384 L185.0854,25.9704 C187.8214,25.9704 188.5424,24.7224 188.5424,22.8984 L188.5424,10.7524 C188.5424,10.7524 186.6694,10.2734 186.6694,12.8654 L186.6694,16.8974 L179.1804,16.8974 L179.1804,1.3434 L210.5274,1.3434 L210.5274,16.8974 L202.9424,16.8974 Z" id="Fill-12" fill="#0A0B09"></path>
            <path d="M212.6836,35.1386 L212.6836,25.9706 C214.9396,25.9706 215.4676,25.2496 215.4676,23.9546 L215.4676,12.7206 C215.4676,10.4166 213.4036,10.6096 212.6836,10.6096 L212.6836,1.3436 L241.1506,1.3436 L241.1506,16.1776 L232.8936,16.1776 L232.7016,13.0566 C232.6056,11.7126 231.9336,10.6096 229.4376,10.6096 L228.1896,10.6096 L228.1896,15.4096 C228.8616,15.4096 229.2456,14.6416 229.2456,13.6326 L229.2456,12.3846 L231.7416,12.3846 L231.7416,23.5216 L229.1976,23.5216 L229.1976,21.7946 C229.1976,20.6896 228.7166,20.4496 228.2856,20.4026 L228.2856,25.9706 L230.0136,25.9706 C231.9816,25.9706 233.0856,23.4746 233.0856,21.4566 L233.0856,19.1056 L241.2456,19.1056 L241.2456,35.1386 L212.6836,35.1386 Z" id="Fill-14" fill="#0A0B09"></path>
            <g id="Group-18" transform="translate(243.000000, 0.810500)">
                <mask id="mask-4" fill="white">
                    <use xlink:href="#path-3"></use>
                </mask>
                <g id="Clip-17"></g>
                <path d="M0.4033,34.3281 L0.4033,25.1601 C2.5633,25.2071 3.1393,24.3441 3.1393,23.2871 L3.1393,11.8631 C3.1393,10.2301 2.2273,9.7501 0.6433,9.7501 L0.6433,0.5331 L20.0373,0.5331 L20.0373,9.7991 C17.8293,9.7031 16.1483,10.0861 16.1483,12.5821 L16.1483,25.1111 C18.1653,25.4961 18.9813,23.1441 18.9813,21.1761 L18.9813,18.3901 L28.7733,18.3901 L28.7733,34.3281 L0.4033,34.3281 Z" id="Fill-16" fill="#0A0B09" mask="url(#mask-4)"></path>
            </g>
            <path d="M16.9453,49.6093 L15.7943,49.6093 L15.7943,55.0333 L17.3783,55.0333 C18.7693,55.0333 19.3933,54.2163 19.3933,52.2013 C19.3933,50.7133 18.9143,49.6093 16.9453,49.6093 M22.2253,60.4103 L15.7453,60.4103 L15.7453,62.9063 C15.7453,64.3453 16.7543,64.9703 18.8663,64.9703 L18.8663,74.1383 L0.0003,74.1383 L0.0003,65.0173 C2.0163,65.0173 2.7843,64.1543 2.7843,62.6663 L2.7843,51.9143 C2.7843,50.1363 1.5843,49.6093 0.1923,49.6093 L0.1923,40.3433 L23.9543,40.3433 C27.4103,40.3433 32.4033,43.7523 32.4033,50.0413 C32.4033,57.0973 27.8903,60.4103 22.2253,60.4103" id="Fill-19" fill="#0A0B09"></path>
            <g id="Group-23" transform="translate(34.000000, 38.810500)">
                <mask id="mask-6" fill="white">
                    <use xlink:href="#path-5"></use>
                </mask>
                <g id="Clip-22"></g>
                <path d="M16.1621,10.6074 C13.6661,10.6074 13.5691,14.2534 13.5691,18.5744 C13.5691,21.5504 13.2331,25.8244 15.8261,25.8244 C18.4661,25.8244 18.5621,21.5994 18.5621,17.9514 C18.5621,13.3414 18.3701,10.6074 16.1621,10.6074 M15.7291,36.0004 C6.9451,36.0004 0.5601,29.6154 0.5601,19.2954 C0.5601,8.1584 6.4171,0.1894 16.1141,0.1894 C25.0911,0.1894 31.4751,6.5254 31.4751,17.2794 C31.4751,26.4964 27.0111,36.0004 15.7291,36.0004" id="Fill-21" fill="#0A0B09" mask="url(#mask-6)"></path>
            </g>
            <path d="M83.9541,49.6093 L82.8981,49.6093 L82.8981,54.5053 L84.5301,54.5053 C85.7301,54.5053 86.4991,53.5933 86.4991,52.0563 C86.4991,49.7053 85.2501,49.6093 83.9541,49.6093 M93.4591,74.7143 C85.7781,74.7143 85.6831,69.4353 85.6831,66.3633 L85.6831,61.7543 C85.6831,60.4573 84.8181,60.0253 83.7141,60.0253 L82.8021,60.0253 L82.8021,63.4823 C82.8021,65.0173 83.9061,64.9703 85.0111,64.9703 L85.0111,74.1383 L67.6331,74.1383 L67.6331,64.9703 C69.6011,64.9703 69.9371,63.6273 69.9371,62.6663 L69.9371,51.7203 C69.9371,50.1363 69.1691,49.6093 67.8251,49.6093 L67.8251,40.3433 L82.9461,40.3433 C88.2741,40.3433 92.6431,40.3923 95.3791,41.9273 C98.3551,43.6093 99.5561,46.9683 99.5561,49.8963 C99.5561,56.6173 94.0351,57.7223 91.2511,57.8183 C94.2751,57.9143 98.3551,58.9223 98.3551,63.0023 L98.3551,64.8263 C98.3551,65.3533 98.2601,65.4513 98.5961,65.4513 C98.9791,65.4513 98.8361,65.1153 98.8361,64.7303 L98.8361,58.8263 L101.8111,58.8263 L101.8111,61.7543 C101.8111,67.8023 101.5721,74.7143 93.4591,74.7143" id="Fill-24" fill="#0A0B09"></path>
            <path d="M125.8076,55.8984 L125.8076,51.3844 C125.8076,49.6564 124.3686,49.7534 124.3686,49.7534 L124.3686,62.7614 C124.3686,63.5294 125.2326,64.9704 127.3436,64.9704 L127.3436,74.1384 L107.9506,74.1384 L107.9506,64.9704 C110.6866,64.9704 111.4076,63.7224 111.4076,61.8984 L111.4076,49.7534 C111.4076,49.7534 109.5346,49.2734 109.5346,51.8654 L109.5346,55.8984 L102.0456,55.8984 L102.0456,40.3434 L133.3926,40.3434 L133.3926,55.8984 L125.8076,55.8984 Z" id="Fill-26" fill="#0A0B09"></path>
            <path d="M135.5498,74.1386 L135.5498,64.9706 C137.7098,65.0176 138.2858,64.1546 138.2858,63.0976 L138.2858,51.6736 C138.2858,50.0406 137.3738,49.5606 135.7898,49.5606 L135.7898,40.3436 L155.1838,40.3436 L155.1838,49.6096 C152.9758,49.5136 151.2948,49.8966 151.2948,52.3926 L151.2948,64.9216 C153.3118,65.3066 154.1278,62.9546 154.1278,60.9866 L154.1278,58.2006 L163.9198,58.2006 L163.9198,74.1386 L135.5498,74.1386 Z" id="Fill-28" fill="#0A0B09"></path>
            <path d="M180.6719,50.33 L179.2789,57.242 L181.9679,57.242 L180.6719,50.33 Z M180.8629,74.139 L180.8629,64.971 L181.7279,64.971 C182.8799,64.971 183.5519,64.299 183.3599,63.387 L182.9279,61.418 L178.2719,61.418 C178.2719,61.418 177.8879,62.521 177.9359,63.242 C177.9839,64.635 179.1359,65.018 179.8079,64.971 L179.8079,74.139 L166.0779,74.139 L166.0779,64.922 C167.8069,64.922 169.0069,63.529 169.5829,61.322 L175.1509,40.344 L190.8489,40.344 L196.3209,61.033 C196.8009,62.857 197.2809,64.922 199.2969,64.971 L199.2969,74.139 L180.8629,74.139 Z" id="Fill-30" fill="#0A0B09"></path>
            <path d="M230.0166,52.6816 L230.0166,74.1386 L218.2076,74.1386 L212.6876,60.7456 C211.8706,58.7776 211.4396,56.1366 211.3426,55.4646 L211.3426,60.8416 C211.3426,64.0096 212.5906,64.9216 214.0316,64.9216 L214.0316,74.1386 L201.4546,74.1386 L201.4546,64.9706 C203.2306,65.0666 204.0946,64.2026 204.0946,61.6586 L204.0946,51.9136 C204.0946,50.1856 202.9426,49.6096 201.4546,49.6096 L201.4546,40.3436 L216.8156,40.3436 L221.6166,52.6816 C222.3356,54.5056 222.5286,55.4646 222.7196,56.1366 L222.7196,52.5856 C222.7196,49.8496 221.4716,49.3686 220.5116,49.3206 L220.5116,40.3436 L233.0886,40.3436 L233.0886,49.6096 C231.3126,49.5606 230.0166,50.2816 230.0166,52.6816" id="Fill-32" fill="#0A0B09"></path>
            <path d="M255.5029,55.2734 C255.5029,52.8734 255.2629,49.6094 253.1029,49.6094 L251.4709,49.6094 L251.4709,64.9704 L252.9589,64.9704 C255.6479,64.9704 255.5029,60.9864 255.5029,58.1544 L255.5029,55.2734 Z M252.9109,74.1384 L235.2449,74.1384 L235.2449,64.9704 L236.2529,64.9704 C237.7409,64.9704 238.4129,64.3944 238.4129,62.9554 L238.4129,51.6254 C238.4129,50.0894 237.3099,49.6094 236.2529,49.6094 L235.2449,49.6094 L235.2449,40.3434 L254.6389,40.3434 C265.7759,40.3434 268.7519,48.9844 268.7519,57.5784 C268.7519,65.8824 265.7759,74.1384 252.9109,74.1384 L252.9109,74.1384 Z" id="Fill-34" fill="#0A0B09"></path>
        </g>
    </g>
</svg>

<svg height="75" viewBox="0 0 272 75" width="272" xmlns="http://www.w3.org/2000/svg" xmlns:xlink="http://www.w3.org/1999/xlink"><mask id="a" fill="#fff"><path d="m0 .5336v33.795h33.2187v-33.795z" fill="none"/></mask><mask id="b" fill="#fff"><path d="m28.773 34.3281v-33.795h-28.3697v33.795z" fill="none"/></mask><mask id="c" fill="#fff"><path d="m.5601 36h30.915v-35.8106h-30.915z" fill="none"/></mask><g fill="#0a0b09" fill-rule="evenodd"><path d="m14.5937 10.5186-1.393 6.913h2.689zm.191 23.81v-9.168h.865c1.152 0 1.824-.672 1.632-1.584l-.432-1.969h-4.656s-.384 1.103-.336 1.824c.048 1.393 1.2 1.775 1.872 1.729v9.168h-13.73v-9.217c1.729 0 2.929-1.393 3.505-3.6l5.568-20.978h15.698l5.472 20.689c.48 1.824.96 3.889 2.976 3.938v9.168z" mask="url(#a)" transform="translate(0 .8105)"/><path d="m48.9121 35.7148c-10.417 0-14.978-7.92-14.978-16.705 0-10.609 4.945-18.961 13.346-18.961 4.8 0 6.288 2.207 7.008 2.543l.336-1.584h8.401v15.842h-11.425v-1.729c0-1.968-.288-4.847-1.92-4.847-1.92 0-2.4 4.031-2.4 8.304 0 3.073 0 7.44 2.304 7.489 1.104 0 2.016-1.584 2.016-4.321v-2.832h11.617v1.344c0 8.353-3.648 15.457-14.305 15.457"/><path d="m65.375 35.1386v-9.168c2.256 0 2.784-.721 2.784-2.016v-11.234c0-2.304-2.064-2.111-2.784-2.111v-9.266h28.467v14.834h-8.257l-.192-3.121c-.096-1.344-.768-2.447-3.264-2.447h-1.248v4.8c.672 0 1.056-.768 1.056-1.777v-1.248h2.496v11.137h-2.544v-1.727c0-1.105-.481-1.345-.912-1.392v5.568h1.728c1.968 0 3.072-2.496 3.072-4.514v-2.351h8.16v16.033z"/><path d="m141.7441 12.9609v11.041c0 .961.864 1.969 2.112 1.969v9.168h-17.185v-9.168c1.728-.289 2.112-1.201 2.112-2.209v-3.168h-4.513v3.648c0 .721 1.009 1.729 1.825 1.729v9.168h-16.994v-9.168c1.584 0 2.305-1.057 2.305-2.209v-11.617c0-.913-.768-1.536-2.209-1.536v-9.265h17.042v9.265c-1.44 0-1.969 1.056-1.969 1.92v2.544h4.513v-2.832c0-.672-.528-1.632-1.968-1.632v-9.265h17.138v9.217c-.721.144-2.209-.144-2.209 2.4"/><path d="m161.7109 10.4169c-2.496 0-2.593 3.648-2.593 7.969 0 2.975-.336 7.249 2.257 7.249 2.64 0 2.736-4.225 2.736-7.873 0-4.609-.192-7.345-2.4-7.345m-.433 25.394c-8.784 0-15.169-6.385-15.169-16.706 0-11.136 5.857-19.105 15.554-19.105 8.977 0 15.361 6.336 15.361 17.09 0 9.217-4.464 18.721-15.746 18.721"/><path d="m202.9424 16.8974v-4.513c0-1.727-1.439-1.632-1.439-1.632v13.009c0 .768.864 2.209 2.975 2.209v9.168h-19.393v-9.168c2.736 0 3.457-1.248 3.457-3.072v-12.146s-1.873-.479-1.873 2.113v4.032h-7.489v-15.554h31.347v15.554z"/><path d="m212.6836 35.1386v-9.168c2.256 0 2.784-.721 2.784-2.016v-11.234c0-2.304-2.064-2.111-2.784-2.111v-9.266h28.467v14.834h-8.257l-.192-3.121c-.096-1.344-.768-2.447-3.264-2.447h-1.248v4.8c.672 0 1.056-.768 1.056-1.777v-1.248h2.496v11.137h-2.544v-1.727c0-1.105-.481-1.345-.912-1.392v5.568h1.728c1.968 0 3.072-2.496 3.072-4.514v-2.351h8.16v16.033z"/><path d="m.4033 34.3281v-9.168c2.16.047 2.736-.816 2.736-1.873v-11.424c0-1.633-.912-2.113-2.496-2.113v-9.217h19.394v9.266c-2.208-.096-3.889.287-3.889 2.783v12.529c2.017.385 2.833-1.967 2.833-3.935v-2.786h9.792v15.938z" mask="url(#b)" transform="translate(243 .8105)"/><path d="m16.9453 49.6093h-1.151v5.424h1.584c1.391 0 2.015-.817 2.015-2.832 0-1.488-.479-2.592-2.448-2.592m5.28 10.801h-6.48v2.496c0 1.439 1.009 2.064 3.121 2.064v9.168h-18.866v-9.121c2.016 0 2.784-.863 2.784-2.351v-10.752c0-1.778-1.2-2.305-2.592-2.305v-9.266h23.762c3.456 0 8.449 3.409 8.449 9.698 0 7.056-4.513 10.369-10.178 10.369"/><path d="m16.1621 10.6074c-2.496 0-2.593 3.646-2.593 7.967 0 2.976-.336 7.25 2.257 7.25 2.64 0 2.736-4.225 2.736-7.873 0-4.61-.192-7.344-2.4-7.344m-.433 25.393c-8.784 0-15.169-6.385-15.169-16.705 0-11.137 5.857-19.106 15.554-19.106 8.977 0 15.361 6.336 15.361 17.09 0 9.217-4.464 18.721-15.746 18.721" mask="url(#c)" transform="translate(34 38.8105)"/><path d="m83.9541 49.6093h-1.056v4.896h1.632c1.2 0 1.969-.912 1.969-2.449 0-2.351-1.249-2.447-2.545-2.447m9.505 25.105c-7.681 0-7.776-5.279-7.776-8.351v-4.609c0-1.297-.865-1.729-1.969-1.729h-.912v3.457c0 1.535 1.104 1.488 2.209 1.488v9.168h-17.378v-9.168c1.968 0 2.304-1.343 2.304-2.304v-10.946c0-1.584-.768-2.111-2.112-2.111v-9.266h15.121c5.328 0 9.697.049 12.433 1.584 2.976 1.682 4.177 5.041 4.177 7.969 0 6.721-5.521 7.826-8.305 7.922 3.024.096 7.104 1.104 7.104 5.184v1.824c0 .527-.095.625.241.625.383 0 .24-.336.24-.721v-5.904h2.975v2.928c0 6.048-.239 12.96-8.352 12.96"/><path d="m125.8076 55.8984v-4.514c0-1.728-1.439-1.631-1.439-1.631v13.008c0 .768.864 2.209 2.975 2.209v9.168h-19.393v-9.168c2.736 0 3.457-1.248 3.457-3.072v-12.145s-1.873-.48-1.873 2.112v4.033h-7.489v-15.555h31.347v15.555z"/><path d="m135.5498 74.1386v-9.168c2.16.047 2.736-.816 2.736-1.873v-11.424c0-1.633-.912-2.113-2.496-2.113v-9.217h19.394v9.266c-2.208-.096-3.889.287-3.889 2.783v12.529c2.017.385 2.833-1.967 2.833-3.935v-2.786h9.792v15.938z"/><path d="m180.6719 50.33-1.393 6.912h2.689zm.191 23.809v-9.168h.865c1.152 0 1.824-.672 1.632-1.584l-.432-1.969h-4.656s-.384 1.103-.336 1.824c.048 1.393 1.2 1.776 1.872 1.729v9.168h-13.73v-9.217c1.729 0 2.929-1.393 3.505-3.6l5.568-20.978h15.698l5.472 20.689c.48 1.824.96 3.889 2.976 3.938v9.168z"/><path d="m230.0166 52.6816v21.457h-11.809l-5.52-13.393c-.817-1.968-1.248-4.609-1.345-5.281v5.377c0 3.168 1.248 4.08 2.689 4.08v9.217h-12.577v-9.168c1.776.096 2.64-.768 2.64-3.312v-9.745c0-1.728-1.152-2.304-2.64-2.304v-9.266h15.361l4.801 12.338c.719 1.824.912 2.783 1.103 3.455v-3.551c0-2.736-1.248-3.217-2.208-3.265v-8.977h12.577v9.266c-1.776-.049-3.072.672-3.072 3.072"/><path d="m255.5029 55.2734c0-2.4-.24-5.664-2.4-5.664h-1.632v15.361h1.488c2.689 0 2.544-3.984 2.544-6.816zm-2.592 18.865h-17.666v-9.168h1.008c1.488 0 2.16-.576 2.16-2.015v-11.33c0-1.536-1.103-2.016-2.16-2.016h-1.008v-9.266h19.394c11.137 0 14.113 8.641 14.113 17.235 0 8.304-2.976 16.56-15.841 16.56z"/></g></svg>
